X:168
T:Jesus, King of Glory
%%stretchlast false
M:4/4
L:1/4
K:Eb clef=C1
"^I"[EBeg] [EBeg] "^V7"[B,Adf] [B,Adf] | "^I"[EGBe]2 [EGB]2 | [E,Geb] [E,Geb] "^ii7¹"[A,Fec'] [A,Fec'] | "^V"[B,Bdf]4 | "^IV¹"[CEca] "^V7¹"[DFBa] "^I"[EGBg] [EGBg] | "^ii¹"[A,Acf]2 "^vi+"[A,Ac]2 | "^I²"[B,GBe] "^vi"[CEGe] "^ii¹"[A,Acf] "^V7"[B,Adf] | "^I"[EGe]4 | "^I¹"[GBeb] [Geb] "^i"[FAea] "^♭VII¹"[FA_da] | "^v°7²"[=EB_dg] [=EB_dg] "^vi¹"[Ec] "^vi7¹"[EBc] | "^ii"[FAca] [FAca] "^vi+"[A,Acc'] [A,Gcc']/ "^ii¹"[A,Fcc']/ | "^I²"[B,GBe]2 "^V"[B,FBd]2 | "^ii"[F,Fca] "^ii7"[F,Eca] "^V"[B,DBf] "^V7³"[A,DBf] | "^I¹"[G,EBb]2 [G,Beg]2 | "^ii¹"[A,Acf] [A,Acf] "^V"[B,FBd] [B,FBd] | "^I"[EGBe]2 "^IV²"[EAce]2 | "^I"[E,GBg] "^I¹"[G,EBg] "^V"[B,DBf] "^V7¹"[DABf] | "^I"[EGBe] "^i"[FAe] "^iii"[GB] "^♯iii"[FAB] | "^I"[EGBb] [EGeb] "^IVmaj7"[A,Gec'] "^ii7¹"[A,Fec'] | "^V"[B,Bdf]4 | "^IV¹"[CEca] "^V7¹"[DFBa] "^I"[EGBg] "^I¹"[G,EBg] | "^ii¹"[A,CAf] [A,Ccf] "^VI7²"[G,=EBc] "^ii"[F,FAc] | "^I²"[B,Ge] [B,Ge] "^♯iii"[B,CAf] "^V7"[B,DAf] | "^I"[E,EGe]4 |]
